X:1
T:How long wilt thou forget me, Lord?
T:How long wilt thou forget me, Lord? (Joseph Stephenson)
C:Joseph Stephenson
Z:Text: Tate/Brady on Ps 13.
%%score [ 1 2 3 4 ]
L:1/8
M:3/2
K:G
V:1 treble nm="SOPRANO" snm="S."
V:2 treble nm="ALTO" snm="A."
V:3 treble-8 transpose=-12 nm="TENOR" snm="T."
V:4 bass nm="BASS" snm="B."
V:1
 G4 | B8 A4 | (G2 A2 B2 A2) G4 | (A4 G4) F4 | G8 G4 | d8 d4 | (B4 A4) G4 | F8 A4 | B8 A4 | %9
w: Re-|store me,|lest _ _ _ they|proud- * ly|boast ’Twas|their own|strength _ o’er-|came; Per-|mit not|
w: How|long wilt|thou _ _ _ for-|get _ me,|Lord? Must|I for|ev- * er|mourn? How|long wilt|
w: How|long shall|anx- * * * ious|thoughts _ my|soul And|grief my|heart _ op-|press? How|long my|
 (G6 A2) B4 | (c3 d e4) d4 | d8 z4 | z8 (B3 c) | (de d2 cd c2 d2) B2 | (A4 G4) F4 | G8 |] %16
w: them _ that|vex _ _ my|soul|To _|tri- * * * * * * umph|in _ my|shame.|
w: thou _ with-|draw _ _ from|me,|O _|ne- * * * * * * ver|to _ re-|turn?|
w: e- * ne-|mies _ _ in-|sult,|And _|I _ _ _ _ _ _ have|no _ re-|dress?|
V:2
 D4 | D8 D4 | D8 G4 | E8 D4 | D8 D4 | =F8 D4 | D8 ^C4 | D8 D4 | D8 D4 | D8 G4 | (E6 F2) G4 | %11
w: Re-|store me,|lest they|proud- ly|boast ’Twas|their own|strength o’er-|came; Per-|mit not|them that|vex _ my|
w: How|long wilt|thou for-|get me,|Lord? Must|I for|ev- er|mourn? How|long wilt|thou with-|draw _ from|
w: How|long shall|anx- ious|thoughts my|soul And|grief my|heart op-|press? How|long my|e- ne-|mies _ in-|
 F8 z4 | z8 D4 | (D4 E4 F2) G2 | E4 D8 | D8 |] %16
w: soul|To|tri- * * umph|in my|shame.|
w: me,|O|ne- * * ver|to re-|turn?|
w: sult,|And|I _ _ have|no re-|dress?|
V:3
 G4 | d8 d4 | B8 G4 | (c2 B2 c2 B2) A4 | G8 B4 | A8 B4 | (G4 F4) E4 | D8 D4 | G8 A4 | (B6 A2) G4 | %10
w: Re-|store me,|lest they|proud- * * * ly|boast ’Twas|their own|strength _ o’er-|came; Per-|mit not|them _ that|
w: How|long wilt|thou for-|get _ _ _ me,|Lord? Must|I for|ev- * er|mourn? How|long wilt|thou _ with-|
w: How|long shall|anx- ious|thoughts _ _ _ my|soul And|grief my|heart _ op-|press? How|long my|e- * ne-|
 c8 B4 | A8 (B3 c) | (de d2) (cd c2) (Bc B2 | AG A2 GA G2 A2) B2 | (c2 B2) TA8 | G8 |] %16
w: vex my|soul To _|tri- * * umph, _ _ tri- * *|* * * * * * * umph|in _ my|shame.|
w: draw from|me, O _|ne- * * ver, _ _ ne- * *|* * * * * * * ver|to _ re-|turn?|
w: mies in-|sult, And _|I _ _ have, _ _ I _ _|_ _ _ _ _ _ _ have|no _ re-|dress?|
V:4
 G,,4 | G,,8 D,4 | (G,2 F,2 G,2 F,2) E,4 | C,8 D,4 | G,,8 G,4 | D,8 B,,4 | (G,4 A,4) A,,4 | %7
w: Re-|store me,|lest _ _ _ they|proud- ly|boast ’Twas|their own|strength _ o’er-|
w: How|long wilt|thou _ _ _ for-|get me,|Lord? Must|I for|ev- * er|
w: How|long shall|anx- * * * ious|thoughts my|soul And|grief my|heart _ op-|
 D,8 D,4 | G,,8 D,4 | (G,6 F,2) E,4 | C,8 G,4 | %11
w: came; Per-|mit not|them _ that|vex my|
w: mourn? How|long wilt|thou _ with-|draw from|
w: press? How|long my|e- * ne-|mies in-|
"^Notes: The alto part is printed in the alto clef in the source.The only indications of the text in the source are the heading 'Ps. 13th.', the opening words 'How long wilt thou &c.'and the opening of the last line under the bass part, 'Oh never never': in the present edition, the full text has beenunderlaid editorially.The note on the second half of the second beat of bar 13 in the treble part, shown here as a crotchet C, is printedas a quaver in the source, beamed together with the preceding two quavers (resulting in that bar being one quavershort in the treble part only): the parallel tenor and bass parts are printed correctly.The alto F semibreve on beats 1 and 2 of bar 5 is marked with a flat in the source, which has been editoriallyunderstood as a natural." D,8 G,,4 | %12
w: soul To|
w: me, O|
w: sult, And|
 D,4 (E,3 F,) (G,A, G,2 | F,G, F,2 E,F, E,2 D,2) G,,2 | C,4 D,8 | G,,8 |] %16
w: tri- umph, _ tri- * *|* * * * * * * umph|in my|shame.|
w: ne- ver, _ ne- * *|* * * * * * * ver|to re-|turn?|
w: I have, _ I _ _|_ _ _ _ _ _ _ have|no re-|dress?|

